public/images/partners/appwrite.svg

<svg fill="none" height="37" viewBox="0 0 200 37" width="200" xmlns="http://www.w3.org/2000/svg"><g fill="#19191d"><path d="m58.4187 29.3898c3.2711 0 4.9247-1.6783 5.6436-2.8209h.3235c.1438 1.214 1.0065 2.3567 2.696 2.3567h3.1992v-3.5708h-.8268c-.5751 0-.8627-.3213-.8627-.8212v-14.3187h-4.2416v2.2853h-.3236c-.8267-1.1427-2.5522-2.7495-5.7154-2.7495-5.0325 0-8.771 4.1421-8.771 9.8195 0 5.6775 3.8104 9.8196 8.8788 9.8196zm.7549-4.0707c-2.9836 0-5.3201-2.1781-5.3201-5.7132 0-3.4636 2.2646-5.8203 5.2841-5.8203 2.8757 0 5.2841 2.1068 5.2841 5.8203 0 3.178-2.0489 5.7132-5.2481 5.7132z"/><path d="m72.7853 36.1809h4.2417v-9.612h.3235c.7908 1.1426 2.4803 2.8209 5.8233 2.8209 5.0325 0 8.6991-4.2135 8.6991-9.8196 0-5.6417-3.9182-9.8195-8.9866-9.8195-3.2352 0-4.8169 1.7497-5.5717 2.7138h-.3236v-2.2496h-4.2057zm9.4899-10.7547c-2.9117 0-5.3201-2.1424-5.3201-5.856 0-3.1779 2.0489-5.856 5.2482-5.856 2.9835 0 5.32 2.321 5.32 5.856 0 3.4637-2.2646 5.856-5.2481 5.856z"/><path d="m94.0616 36.1809h4.2417v-9.612h.3235c.7908 1.1426 2.4802 2.8209 5.8232 2.8209 5.033 0 8.35-4.2135 8.35-9.8196 0-5.6417-3.569-9.8195-8.637-9.8195-3.236 0-4.8173 1.7497-5.5722 2.7138h-.3235v-2.2496h-4.2057zm9.4894-10.7547c-2.911 0-5.3196-2.1424-5.3196-5.856 0-3.1779 2.0486-5.856 5.2486-5.856 2.983 0 5.32 2.321 5.32 5.856 0 3.4637-2.265 5.856-5.249 5.856z"/><path d="m118.407 29.3601h6.003l3.415-14.6758h.215l3.415 14.6758h5.967l4.779-18.7107h-4.275l-3.415 14.7114h-.324l-3.415-14.7114h-5.643l-3.451 14.7114h-.324l-3.379-14.7114h-4.529z"/><path d="m144.35 29.3601h4.241v-9.2483c0-3.535 1.654-5.7131 4.745-5.7131h1.869v-4.2135h-1.402c-2.408 0-4.241 1.6425-4.96 3.2136h-.288v-2.7494h-4.205z"/><path d="m176.255 29.3601h3.307v-3.7493h-3.271c-1.294 0-1.834-.5713-1.834-1.8925v-9.3554h5.32v-3.7135h-5.32v-5.24901h-4.026v5.24901h-3.522v3.7135h3.271v9.3911c0 3.9635 2.408 5.6061 6.075 5.6061z"/><path d="m190.941 29.3898c3.919 0 7.369-1.9282 8.592-5.8203l-3.883-.9284c-.683 2.071-2.66 3.1422-4.744 3.1422-3.092 0-5.141-1.9996-5.177-5.1418h14.271v-1.1784c0-5.5703-3.487-9.7124-9.238-9.7124-5.069 0-9.418 3.9635-9.418 9.8552 0 5.7132 3.846 9.7839 9.597 9.7839zm-5.176-11.8192c.252-2.2495 2.301-4.142 4.997-4.142 2.588 0 4.709 1.6068 4.924 4.142z"/><path clip-rule="evenodd" d="m165.023 29.3601h-4.242v-14.9972h-3.307v-3.7135h7.549z" fill-rule="evenodd"/><path d="m162.586 8.0527c1.546 0 2.696-1.14264 2.696-2.64235 0-1.464-1.15-2.60664-2.696-2.60664-1.545 0-2.696 1.14264-2.696 2.60664 0 1.49971 1.151 2.64235 2.696 2.64235z"/></g><path d="m37.0346 24.7721v8.2574h-20.7438c-6.0436 0-11.32044-3.3209-14.14368-8.2574-.41043-.7176-.76964-1.4705-1.07096-2.252-.591518-1.5313-.963349-3.1746-1.07616-4.8891v-2.2325c.0244919-.3821.0630851-.7612.113553-1.1358.103163-.7686.25902-1.5208.463861-2.252 1.937826-6.93167 8.238906-12.0107 15.713386-12.0107 7.4745 0 13.7748 5.07903 15.7126 12.0107h-8.8697c-1.4562-2.25949-3.9766-3.75332-6.8429-3.75332s-5.3867 1.49383-6.84288 3.75332c-.44382.6869-.7882 1.4443-1.01382 2.252-.20038.7162-.30726 1.4714-.30726 2.2521 0 2.3668.98413 4.5002 2.56196 6.0053 1.4621 1.397 3.4333 2.252 5.602 2.252z" fill="#fd366e"/><path d="m37.0347 14.2627v8.2574h-15.1419c1.5778-1.5051 2.562-3.6385 2.562-6.0054 0-.7807-.1069-1.5359-.3073-2.252z" fill="#fd366e"/></svg>

<svg style="max-inline-size:100%" xmlns="http://www.w3.org/2000/svg" width="200" height="37" viewBox="0 0 200 37"
  fill="none">
  <path
    d="M58.4187 29.3898C61.6898 29.3898 63.3434 27.7115 64.0623 26.5689H64.3858C64.5296 27.7829 65.3923 28.9256 67.0818 28.9256H70.281V25.3548H69.4542C68.8791 25.3548 68.5915 25.0335 68.5915 24.5336V10.2149H64.3499V12.5002H64.0263C63.1996 11.3575 61.4741 9.7507 58.3109 9.7507C53.2784 9.7507 49.5399 13.8928 49.5399 19.5702C49.5399 25.2477 53.3503 29.3898 58.4187 29.3898ZM59.1736 25.3191C56.19 25.3191 53.8535 23.141 53.8535 19.6059C53.8535 16.1423 56.1181 13.7856 59.1376 13.7856C62.0133 13.7856 64.4217 15.8924 64.4217 19.6059C64.4217 22.7839 62.3728 25.3191 59.1736 25.3191Z"
    fill="#19191D" />
  <path
    d="M72.7853 36.1809H77.027V26.5689H77.3505C78.1413 27.7115 79.8308 29.3898 83.1738 29.3898C88.2063 29.3898 91.8729 25.1763 91.8729 19.5702C91.8729 13.9285 87.9547 9.7507 82.8863 9.7507C79.6511 9.7507 78.0694 11.5004 77.3146 12.4645H76.991V10.2149H72.7853V36.1809ZM82.2752 25.4262C79.3635 25.4262 76.9551 23.2838 76.9551 19.5702C76.9551 16.3923 79.004 13.7142 82.2033 13.7142C85.1868 13.7142 87.5233 16.0352 87.5233 19.5702C87.5233 23.0339 85.2587 25.4262 82.2752 25.4262Z"
    fill="#19191D" />
  <path
    d="M94.0616 36.1809H98.3033V26.5689H98.6268C99.4176 27.7115 101.107 29.3898 104.45 29.3898C109.483 29.3898 112.8 25.1763 112.8 19.5702C112.8 13.9285 109.231 9.7507 104.163 9.7507C100.927 9.7507 99.3457 11.5004 98.5908 12.4645H98.2673V10.2149H94.0616V36.1809ZM103.551 25.4262C100.64 25.4262 98.2314 23.2838 98.2314 19.5702C98.2314 16.3923 100.28 13.7142 103.48 13.7142C106.463 13.7142 108.8 16.0352 108.8 19.5702C108.8 23.0339 106.535 25.4262 103.551 25.4262Z"
    fill="#19191D" />
  <path
    d="M118.407 29.3601H124.41L127.825 14.6843H128.04L131.455 29.3601H137.422L142.201 10.6494H137.926L134.511 25.3608H134.187L130.772 10.6494H125.129L121.678 25.3608H121.354L117.975 10.6494H113.446L118.407 29.3601Z"
    fill="#19191D" />
  <path
    d="M144.35 29.3601H148.591V20.1118C148.591 16.5768 150.245 14.3987 153.336 14.3987H155.205V10.1852H153.803C151.395 10.1852 149.562 11.8277 148.843 13.3988H148.555V10.6494H144.35V29.3601Z"
    fill="#19191D" />
  <path
    d="M176.255 29.3601H179.562V25.6108H176.291C174.997 25.6108 174.457 25.0395 174.457 23.7183V14.3629H179.777V10.6494H174.457V5.40039H170.431V10.6494H166.909V14.3629H170.18V23.754C170.18 27.7175 172.588 29.3601 176.255 29.3601Z"
    fill="#19191D" />
  <path
    d="M190.941 29.3898C194.86 29.3898 198.31 27.4616 199.533 23.5695L195.65 22.6411C194.967 24.7121 192.99 25.7833 190.906 25.7833C187.814 25.7833 185.765 23.7837 185.729 20.6415H200V19.4631C200 13.8928 196.513 9.7507 190.762 9.7507C185.693 9.7507 181.344 13.7142 181.344 19.6059C181.344 25.3191 185.19 29.3898 190.941 29.3898ZM185.765 17.5706C186.017 15.3211 188.066 13.4286 190.762 13.4286C193.35 13.4286 195.471 15.0354 195.686 17.5706H185.765Z"
    fill="#19191D" />
  <path fill-rule="evenodd" clip-rule="evenodd" d="M165.023 29.3601H160.781V14.3629H157.474V10.6494H165.023V29.3601Z"
    fill="#19191D" />
  <path
    d="M162.586 8.0527C164.132 8.0527 165.282 6.91006 165.282 5.41035C165.282 3.94635 164.132 2.80371 162.586 2.80371C161.041 2.80371 159.89 3.94635 159.89 5.41035C159.89 6.91006 161.041 8.0527 162.586 8.0527Z"
    fill="#19191D" />
  <path
    d="M37.0346 24.7721V33.0295H16.2908C10.2472 33.0295 4.97036 29.7086 2.14712 24.7721C1.73669 24.0545 1.37748 23.3016 1.07616 22.5201C0.484642 20.9888 0.112811 19.3455 0 17.631V15.3985C0.0244919 15.0164 0.0630851 14.6373 0.113553 14.2627C0.216716 13.4941 0.372573 12.7419 0.577414 12.0107C2.51524 5.07903 8.81632 0 16.2908 0C23.7653 0 30.0656 5.07903 32.0034 12.0107H23.1337C21.6775 9.75121 19.1571 8.25738 16.2908 8.25738C13.4245 8.25738 10.9041 9.75121 9.44792 12.0107C9.0041 12.6976 8.65972 13.455 8.4341 14.2627C8.23372 14.9789 8.12684 15.7341 8.12684 16.5148C8.12684 18.8816 9.11097 21.015 10.6888 22.5201C12.1509 23.9171 14.1221 24.7721 16.2908 24.7721H37.0346Z"
    fill="#FD366E" />
  <path
    d="M37.0347 14.2627V22.5201H21.8928C23.4706 21.015 24.4548 18.8816 24.4548 16.5147C24.4548 15.734 24.3479 14.9788 24.1475 14.2627H37.0347Z"
    fill="#FD366E" />
</svg>
